X:369
T:Cherkessia Kfula
Z:Jack Campin, http://www.campin.me.uk/
F:Jack Campin's Nine-Note Tunebook
% last edit 24-10-2013
S:a book whose title I forgot to note down
N:often used in Israeli dancing
N:probably an Israeli version of the tune
M:2/4
L:1/8
Q:1/4=120 % variable
K:D %Transposed from G
A A2 G|FE D2|G G2 A|B2 B2|A A2 G|[1 F2 E2|A4-|A4:|\
                                 [2 F2 E2|D4-|D4||
B B2 A|GA B2|A A2 G|FG A2|G G2 F|[1 E2 FG|A4-|A4:|\
                                 [2 E2 FE|D4-|D4|]


% == Russian songs ==========================================================

